X: 285
T: Polska (Kringellåt) efter Snickar Erik
S: efter Snickar-Erik Olsson
O: Emnebo, Ovanåkers socken, Hälsingland
B: EÖ, nr 494
R: Polska
N: i en fotnot i EÖ nämns det "Kringellåt från Ofvanåker". Se [[Platser/Ovanåker|andra låtar från Ovanåker]].
Z: Nils L
M: 3/4
L: 1/16
K: Am
(Ac)(Bc) A2E2 C2A,2 | c2(Bc) d2(cB) B2E2 | E2(EF) D2C2B,2A,2 | E2(DE) F2D2B,2G,2 |
C2(CE) D2(DF) E2(E^G) | A2(Ac) .B2(Bd) c2B2 | (e2^f^g .a2)(AB .c2)dc |1 (BA)(^GA) [BE]4 [BE]4 :|2
(BA)(^GA) [BE]4 [AA]4 |: A2(ce) {/e}g4 g4 | c2(eg) (bg)eg g2f2 | G2>B2 d2e2 f4 | d2e2 f2gf e2c2 |
(.G.c)(.e.c) (.G.c)(.e.c) (.G.c)(.e.c) | (.G.B)(.d.B) (.G.B)(.d.B) (.G.B)(.d.B) | (Gc)(ec) (Gc)(ec) (Gc)(ec) | (GB)(dB) (GB)(dB) G2>c2 |
cBA^G A2E2 C2A,2 | !tenuto!.a2(gf) edcB c2C2 | .c2(ec) .B2(dB) A2c2 | (cB)(A^G) A2E2 C2A,2 |
e2(^f^g) a2(AB) c2(dc) | (BA)(^GA B4) A4 :|
(:musicend:)
(:music:)
